source/images/icons/icon-utility/social-youtube.svg

<?xml version="1.0" encoding="UTF-8"?>
<svg width="24px" height="24px" viewBox="0 0 24 24" version="1.1" xmlns="http://www.w3.org/2000/svg" xmlns:xlink="http://www.w3.org/1999/xlink">
    <!-- Generator: Sketch 55.2 (78181) - https://sketchapp.com -->
    <title>Icons/24px/Social-Youtube</title>
    <desc>Created with Sketch.</desc>
    <defs>
        <path d="M22.5468617,7.19058824 C23.0180294,8.75529412 23,12.0164706 23,12.0164706 C23,12.0164706 23,15.2611765 22.5468617,16.8258824 C22.293156,17.6823529 21.5501608,18.3576471 20.6078253,18.5882353 C18.886251,19 11.9999538,19 11.9999538,19 C11.9999538,19 5.13177835,19 3.3920822,18.5717647 C2.44974679,18.3411765 1.70675156,17.6658824 1.45304587,16.8094118 C1,15.2611765 1,12 1,12 C1,12 1,8.75529412 1.45304587,7.19058824 C1.70675156,6.33411765 2.46786863,5.64235294 3.3920822,5.41176471 C5.11365652,5 11.9999538,5 11.9999538,5 C11.9999538,5 18.886251,5 20.6078253,5.42823529 C21.5501608,5.65882353 22.293156,6.33411765 22.5468617,7.19058824 Z M15,12 L10,9 L10,15 L15,12 Z" id="path-1"></path>
    </defs>
    <g id="Icons/24px/Social-Youtube" stroke="none" stroke-width="1" fill="none" fill-rule="evenodd">
        <mask id="mask-2" fill="white">
            <use xlink:href="#path-1"></use>
        </mask>
        <use id="Icon" fill="#ADB5BD" xlink:href="#path-1"></use>
    </g>
</svg>

<svg width="24" height="24" xmlns:xlink="http://www.w3.org/1999/xlink">
    <title>
        Icons/24px/Social-Youtube
    </title>
    <defs>
        <path d="M22.547 7.19c.471 1.565.453 4.826.453 4.826s0 3.245-.453 4.81c-.254.856-.997 1.532-1.94 1.762C18.888 19 12 19 12 19s-6.868 0-8.608-.428c-.942-.23-1.685-.906-1.939-1.763C1 15.261 1 12 1 12s0-3.245.453-4.81c.254-.856 1.015-1.548 1.94-1.778C5.112 5 12 5 12 5s6.886 0 8.608.428c.942.23 1.685.906 1.939 1.763zM15 12l-5-3v6l5-3z" id="a"/>
    </defs>
    <use fill="#ADB5BD" xlink:href="#a" fill-rule="evenodd"/>
</svg>
